sources/design/Outline/ടൃ.svg

<svg:svg xmlns:cc="http://creativecommons.org/ns#" xmlns:dc="http://purl.org/dc/elements/1.1/" xmlns:inkscape="http://www.inkscape.org/namespaces/inkscape" xmlns:rdf="http://www.w3.org/1999/02/22-rdf-syntax-ns#" xmlns:sodipodi="http://sodipodi.sourceforge.net/DTD/sodipodi-0.dtd" xmlns:svg="http://www.w3.org/2000/svg" xml:space="preserve" width="1000" height="1000" version="1.1" style="clip-rule:evenodd;fill-rule:evenodd;image-rendering:optimizeQuality;shape-rendering:geometricPrecision;text-rendering:geometricPrecision" viewBox="0 0 1000 1000" id="svg10" sodipodi:docname="ടൃ.svg" inkscape:version="1.0.2 (e86c870879, 2021-01-15)"><svg:metadata id="metadata14"><rdf:RDF><cc:Work rdf:about=""><dc:format>image/svg+xml</dc:format><dc:type rdf:resource="http://purl.org/dc/dcmitype/StillImage" /><dc:title /></cc:Work></rdf:RDF></svg:metadata><sodipodi:namedview pagecolor="#ffffff" bordercolor="#666666" borderopacity="1" objecttolerance="10" gridtolerance="10" guidetolerance="10" inkscape:pageopacity="0" inkscape:pageshadow="2" inkscape:window-width="1920" inkscape:window-height="1007" id="namedview12" showgrid="false" inkscape:zoom="0.678" inkscape:cx="296.98175" inkscape:cy="386.71765" inkscape:window-x="1920" inkscape:window-y="0" inkscape:window-maximized="1" inkscape:current-layer="svg10" showguides="true" inkscape:guide-bbox="true" inkscape:document-rotation="0" inkscape:snap-to-guides="true" inkscape:pagecheckerboard="0"><sodipodi:guide position="0,1000" orientation="0,1" id="guide16" inkscape:label="" inkscape:locked="true" inkscape:color="rgb(0,0,255)" /><sodipodi:guide position="1763.3122,2036.1693" orientation="1000,0" id="guide18" /><sodipodi:guide position="0,200" orientation="0,1" id="guide20" inkscape:label="base" inkscape:locked="true" inkscape:color="rgb(0,0,255)" /><inkscape:grid type="xygrid" id="grid24" originx="-473.37552" originy="-489.69235" /><sodipodi:guide position="0,0" orientation="0,1" id="guide34" inkscape:label="bottom" inkscape:locked="true" inkscape:color="rgb(0,0,255)" /><sodipodi:guide position="225.05109,1693.3186" orientation="0,1" id="guide44" inkscape:label="" inkscape:locked="false" inkscape:color="rgb(0,0,255)" /><sodipodi:guide position="0,900" orientation="0,1" id="guide46" inkscape:label="" inkscape:locked="true" inkscape:color="rgb(0,0,255)" /><sodipodi:guide position="533.36805,613.13415" orientation="-1,0" id="guide841" inkscape:label="width" inkscape:locked="false" inkscape:color="rgb(0,0,255)" /><sodipodi:guide position="0,1000" orientation="0,1000" id="guide860" /><sodipodi:guide position="1000,1000" orientation="1000,0" id="guide862" /><sodipodi:guide position="1000,0" orientation="0,-1000" id="guide864" /><sodipodi:guide position="0,0" orientation="-1000,0" id="guide866" /></sodipodi:namedview>
 <svg:defs id="defs4"><inkscape:path-effect effect="fillet_chamfer" id="path-effect860" is_visible="true" lpeversion="1" satellites_param="F,0,0,1,0,0,0,1 @ F,0,0,1,0,0,0,1 @ F,0,0,1,0,0,0,1 @ F,0,0,1,0,0,0,1 @ F,0,0,1,0,0,0,1 @ F,0,0,1,0,0,0,1 @ F,0,0,1,0,0,0,1 @ F,0,0,1,0,0,0,1 @ F,0,0,1,0,0,0,1 @ F,0,0,1,0,0,0,1 @ F,0,0,1,0,0,0,1 @ F,0,0,1,0,0,0,1 @ F,0,0,1,0,0,0,1 @ F,0,0,1,0,0,0,1 @ F,0,0,1,0,0,0,1 @ F,0,0,1,0,0,0,1 @ F,0,0,1,0,0,0,1 @ F,0,0,1,0,0,0,1 @ F,0,0,1,0,0,0,1 @ F,0,0,1,0,0,0,1 @ F,0,0,1,0,0,0,1 @ F,0,0,1,0,0,0,1 @ F,0,0,1,0,0,0,1 @ F,0,0,1,0,0,0,1 @ F,0,0,1,0,0,0,1 @ F,0,0,1,0,0,0,1 @ F,0,0,1,0,0,0,1 @ F,0,0,1,0,0,0,1 @ F,0,0,1,0,0,0,1 @ F,0,0,1,0,0,0,1 @ F,0,0,1,0,0,0,1 @ F,0,0,1,0,0,0,1 @ F,0,0,1,0,0,0,1 @ F,0,0,1,0,26.489545,0,1 @ F,0,0,1,0,15.573873,0,1 @ F,0,0,1,0,0,0,1 @ F,0,0,1,0,18.051363,0,1 @ F,0,0,1,0,32.310166,0,1" unit="px" method="auto" mode="F" radius="0" chamfer_steps="1" flexible="false" use_knot_distance="true" apply_no_radius="true" apply_with_radius="true" only_selected="true" hide_knots="false" /><inkscape:path-effect effect="spiro" id="path-effect875" is_visible="true" lpeversion="1" /><inkscape:path-effect effect="spiro" id="path-effect873" is_visible="true" lpeversion="1" /><inkscape:path-effect effect="spiro" id="path-effect859" is_visible="true" lpeversion="1" /><inkscape:path-effect effect="spiro" id="path-effect862" is_visible="true" lpeversion="1" /><inkscape:path-effect effect="spiro" id="path-effect1521" is_visible="true" lpeversion="1" /><inkscape:path-effect effect="spiro" id="path-effect858" is_visible="true" lpeversion="1" /><inkscape:path-effect effect="spiro" id="path-effect854" is_visible="true" lpeversion="1" />
  <svg:style type="text/css" id="style2">
   
    .fil0 {fill:#EF7F1A;fill-rule:nonzero}
   
  </svg:style>
 <inkscape:path-effect effect="spiro" id="path-effect1214" is_visible="true" lpeversion="1" /><inkscape:path-effect effect="spiro" id="path-effect1195" is_visible="true" lpeversion="1" /><inkscape:path-effect effect="spiro" id="path-effect992" is_visible="true" lpeversion="1" /><inkscape:path-effect effect="spiro" id="path-effect287" is_visible="true" lpeversion="1" /><inkscape:path-effect effect="spiro" id="path-effect1032" is_visible="true" lpeversion="1" /><inkscape:path-effect effect="spiro" id="path-effect1218" is_visible="true" lpeversion="1" /><inkscape:path-effect effect="spiro" id="path-effect309" is_visible="true" lpeversion="1" /><inkscape:path-effect effect="spiro" id="path-effect1176" is_visible="true" lpeversion="1" /><inkscape:path-effect effect="spiro" id="path-effect1026" is_visible="true" lpeversion="1" /><inkscape:path-effect effect="spiro" id="path-effect1030" is_visible="true" lpeversion="1" /></svg:defs>
 
<svg:g id="path1087-1-75"><svg:path style="color:#000000;fill:#1a5fb4;fill-rule:nonzero;stroke-linecap:round;stroke-linejoin:round;-inkscape-stroke:none;paint-order:fill stroke markers" d="M 387.61914,68.548828 C 312.03583,67.761435 236.4267,85.267061 168.98047,119.79883 C 100.65165,154.78247 41.448065,206.71543 -2.2695313,269.74414 C -15.71913,289.13475 -17.477916,306.94053 -10.642578,328.24023 L 21.304687,427.78711 C 31.709193,460.20875 65.043369,478.14994 97.435547,471.23046999999997 C 119.24626,466.57135999999997 141.29542,463.02432999999996 163.46483999999998,460.61132999999995 C 199.69059,456.66838999999993 235.51552999999998,455.92416999999995 269.5625,461.33984 C 303.50296000000003,466.73857 335.97654,478.53364 362.33594,497.45117 C 383.96676,512.97511 401.82498,533.69627 412.77344,557.01367 C 414.64206,560.99336 416.23494,565.0949800000001 417.70117,569.24219 C 383.75624999999997,544.28637 346.41474999999997,523.94979 306.84961,509.16602000000006 C 273.62356,496.75088000000005 238.18998,487.93640000000005 201.41405999999998,485.86719000000005 C 164.56237999999996,483.79371000000003 126.56645999999998,488.61485000000005 91.09179699999997,502.92773000000005 C 60.44015399999997,515.2946800000001 31.907635999999968,534.77223 10.347655999999972,561.64062 C -11.332053000000027,588.65823 -25.167086000000026,622.502 -25.88085900000003,658.49609 C -26.474960000000028,688.4553 -17.97980800000003,716.83703 -4.91601560000003,741.58398 C 8.08487869999997,766.21179 25.37635999999997,787.08225 43.62890599999997,805.33984 C 75.87573899999998,837.59559 114.12264999999998,864.5069 156.99218999999997,882.39258 C 199.92027999999996,900.30268 247.14564999999996,908.8941299999999 294.33593999999994,905.0605499999999 C 368.88491999999997,899.0044399999999 438.72106999999994,861.7616599999999 486.53124999999994,804.88086 C 534.26598,748.08982 558.56447,674.012 555.77148,600.37305 C 553.32695,535.92126 530.49277,473.27889 492.19531,421.86133 C 453.92949,370.48625 401.01195,331.14371 341.62695,308.17578 C 299.36902,291.83197 254.1482,283.94165 209.01758,284.625 C 224.51467000000002,273.865 241.7532,265.68753 259.81445,261.32812 C 300.05339000000004,251.61573 345.51751,258.39408000000003 389.51758,272.79492 C 406.2035,278.25608 422.58681,284.65387 438.5625,291.94336 C 451.02219,297.62854 469.02375,300.37660999999997 484.30273,289.4668 C 499.58172,278.55699 502.86377,259.80357 501.00391,246.01561999999998 L 483.38867,115.42383 C 480.16616,91.533975 464.59549,75.096375 439.8418,72.033203 C 422.50287,69.887579 405.06144,68.730534 387.61914,68.548828 M 387.01367,128.56641 C 399.68381,128.69016 412.33301,129.47585999999998 424.91796999999997,130.78905999999998 L 437.83007999999995,226.51171999999997 C 428.04976999999997,222.65393999999998 418.17355,219.04238999999995 408.17968999999994,215.77147999999997 C 358.09881999999993,199.38044999999997 301.7257399999999,189.48789999999997 245.73632999999992,203.00194999999997 C 186.63422999999992,217.26730999999995 135.50125999999995,257.03826999999995 107.12694999999994,310.81055 A 30.003,30.003 0.0 0,0 141.19921999999994,353.84765999999996 C 199.73356999999993,338.64718999999997 263.57827999999995,342.32167999999996 319.98241999999993,364.13671999999997 C 368.9877199999999,383.09015999999997 412.92179999999996,415.87381 444.07616999999993,457.70116999999993 C 475.1988999999999,499.4860499999999 493.85434999999995,550.9690199999999 495.81444999999997,602.6484399999999 C 496.28905999999995,615.1617299999999 495.69989,627.73231 494.21093999999994,640.2109399999999 C 491.03712999999993,636.51204 487.80522999999994,632.8668299999999 484.51561999999996,629.2734399999999 C 487.7057,595.5410199999999 481.24753,561.6764199999999 467.08397999999994,531.51172 C 451.34767999999997,497.99744999999996 426.69753999999995,469.78842999999995 397.32030999999995,448.70507999999995 C 361.71864999999997,423.1545899999999 320.36740999999995,408.66594 278.9882799999999,402.08397999999994 C 237.71566999999993,395.51896999999997 196.56560999999994,396.65539999999993 156.9726599999999,400.9648399999999 C 132.7703199999999,403.59910999999994 108.70611999999991,407.4694199999999 84.9003909999999,412.55468999999994 C 82.39443299999989,413.0899999999999 78.9342849999999,411.0133399999999 78.4335939999999,409.45311999999996 L 46.488281,309.90625 C 47.230996,312.22063 49.119716000000004,300.93128 47.033203,303.93945 C 85.068704,249.10276 136.95437,203.60377 196.32422,173.20703 C 254.85427,143.24026 321.12036,127.92281 387.01367,128.56641 M 187.07031,545.41992 C 190.72338000000002,545.44842 194.38346,545.5655800000001 198.04297,545.77148 C 227.39482999999998,547.42298 257.03105,554.60162 285.84766,565.36914 C 335.26681,583.83494 380.88731,612.65407 419.40234,648.87305 C 414.01002,665.22227 405.08991,680.78732 393.54686999999996,694.4179700000001 C 379.01516999999996,675.1759000000001 362.54461999999995,657.39335 344.23436999999996,641.6191400000001 C 308.14736999999997,610.5303000000001 264.84130999999996,586.6641800000001 217.14061999999996,575.7539100000001 C 191.17754999999997,569.8155400000002 161.73559999999995,567.2028500000001 132.22265999999996,576.1210900000001 C 117.39959999999996,580.6003300000001 102.96892999999996,587.9581100000001 90.49023399999996,598.8281200000001 C 77.93787199999996,609.7623100000001 67.78602199999996,623.9225600000001 62.19140599999996,640.7089800000001 C 55.35398099999996,661.2244100000001 56.366413999999956,682.3181800000001 62.06835899999996,701.1738300000001 C 67.70899299999996,719.8267300000001 77.66234999999996,735.71199 89.00195299999996,749.0390600000001 C 113.40417999999995,777.7182100000001 146.20877999999996,796.8751900000001 180.87499999999994,806.9062500000001 C 215.38459999999995,816.8919900000001 251.10914999999994,817.8673400000001 285.10351999999995,813.1679700000001 C 316.82899,808.7822500000001 348.36743999999993,799.0829400000001 377.13280999999995,783.3710900000001 C 378.24704999999994,785.81527 379.43310999999994,788.22873 380.4746099999999,790.7031200000001 A 30.003,30.003 0.0 0,0 396.36718999999994,806.2656200000001 C 364.62256999999994,828.1677900000001 327.36900999999995,842.1797200000001 289.47851999999995,845.2578100000002 C 252.7864,848.23856 214.83755,841.51424 180.0957,827.01953 C 145.2953,812.50039 113.3147,790.18161 86.060547,762.91992 C 70.636026,747.49114 57.38068,731.0704 48.144531,713.57422 C 38.971281,696.19718 33.757128,677.35013 34.107422,659.68555 C 34.525059,638.625 43.1096,616.68196 57.144531,599.19141 C 71.299192,581.55164 91.27186,567.5552 113.54102,558.57031 C 136.24449,549.41019 161.49881,545.22064 187.07031,545.4199199999999 L 187.07031,545.41992 M 175.03125,630.46289 C 184.18578,630.6510000000001 193.8871,631.98514 203.76367,634.24414 C 240.53542,642.65471 275.50820999999996,661.60684 305.07227,687.07617 C 320.45661,700.32973 334.33634,715.3754600000001 346.52539,731.68555 C 325.32688,742.91728 301.47356,750.3338100000001 276.88867000000005,753.73242 C 249.72013000000004,757.48819 222.35453000000004,756.44816 197.55273000000005,749.27148 C 172.90756000000005,742.14013 150.30950000000007,728.50251 134.69922000000005,710.15625 C 127.47335000000005,701.66391 122.15194000000005,692.5763 119.50000000000006,683.80664 C 116.90937000000005,675.23974 116.89236000000005,666.34348 119.11328000000006,659.67969 C 120.93267000000006,654.22067 124.77179000000007,648.53777 129.90039000000007,644.0703100000001 C 135.10266000000007,639.5386900000001 141.95521000000008,635.8601400000001 149.57812000000007,633.55664 C 157.26762000000008,631.23302 165.87672000000006,630.27478 175.03125000000006,630.46289 L 175.03125,630.46289" id="path20021" /></svg:g></svg:svg>

<svg:svg xmlns:cc="http://creativecommons.org/ns#" xmlns:dc="http://purl.org/dc/elements/1.1/" xmlns:inkscape="http://www.inkscape.org/namespaces/inkscape" xmlns:rdf="http://www.w3.org/1999/02/22-rdf-syntax-ns#" xmlns:sodipodi="http://sodipodi.sourceforge.net/DTD/sodipodi-0.dtd" xmlns:svg="http://www.w3.org/2000/svg" xml:space="preserve" width="1000" height="1000" version="1.1" style="clip-rule:evenodd;fill-rule:evenodd;image-rendering:optimizeQuality;shape-rendering:geometricPrecision;text-rendering:geometricPrecision" viewBox="0 0 1000 1000" id="svg10" sodipodi:docname="ടൃ.svg" inkscape:version="1.0.2 (e86c870879, 2021-01-15)"><svg:metadata id="metadata14"><rdf:RDF><cc:Work rdf:about=""><dc:format>image/svg+xml</dc:format><dc:type rdf:resource="http://purl.org/dc/dcmitype/StillImage" /><dc:title /></cc:Work></rdf:RDF></svg:metadata><sodipodi:namedview pagecolor="#ffffff" bordercolor="#666666" borderopacity="1" objecttolerance="10" gridtolerance="10" guidetolerance="10" inkscape:pageopacity="0" inkscape:pageshadow="2" inkscape:window-width="1920" inkscape:window-height="1007" id="namedview12" showgrid="false" inkscape:zoom="0.678" inkscape:cx="296.98175" inkscape:cy="386.71765" inkscape:window-x="1920" inkscape:window-y="0" inkscape:window-maximized="1" inkscape:current-layer="svg10" showguides="true" inkscape:guide-bbox="true" inkscape:document-rotation="0" inkscape:snap-to-guides="true" inkscape:pagecheckerboard="0"><sodipodi:guide position="0,1000" orientation="0,1" id="guide16" inkscape:label="" inkscape:locked="true" inkscape:color="rgb(0,0,255)" /><sodipodi:guide position="1763.3122,2036.1693" orientation="1000,0" id="guide18" /><sodipodi:guide position="0,200" orientation="0,1" id="guide20" inkscape:label="base" inkscape:locked="true" inkscape:color="rgb(0,0,255)" /><inkscape:grid type="xygrid" id="grid24" originx="-473.37552" originy="-489.69235" /><sodipodi:guide position="0,0" orientation="0,1" id="guide34" inkscape:label="bottom" inkscape:locked="true" inkscape:color="rgb(0,0,255)" /><sodipodi:guide position="225.05109,1693.3186" orientation="0,1" id="guide44" inkscape:label="" inkscape:locked="false" inkscape:color="rgb(0,0,255)" /><sodipodi:guide position="0,900" orientation="0,1" id="guide46" inkscape:label="" inkscape:locked="true" inkscape:color="rgb(0,0,255)" /><sodipodi:guide position="533.36805,613.13415" orientation="-1,0" id="guide841" inkscape:label="width" inkscape:locked="false" inkscape:color="rgb(0,0,255)" /><sodipodi:guide position="0,1000" orientation="0,1000" id="guide860" /><sodipodi:guide position="1000,1000" orientation="1000,0" id="guide862" /><sodipodi:guide position="1000,0" orientation="0,-1000" id="guide864" /><sodipodi:guide position="0,0" orientation="-1000,0" id="guide866" /></sodipodi:namedview>
 <svg:defs id="defs4"><inkscape:path-effect effect="fillet_chamfer" id="path-effect860" is_visible="true" lpeversion="1" satellites_param="F,0,0,1,0,0,0,1 @ F,0,0,1,0,0,0,1 @ F,0,0,1,0,0,0,1 @ F,0,0,1,0,0,0,1 @ F,0,0,1,0,0,0,1 @ F,0,0,1,0,0,0,1 @ F,0,0,1,0,0,0,1 @ F,0,0,1,0,0,0,1 @ F,0,0,1,0,0,0,1 @ F,0,0,1,0,0,0,1 @ F,0,0,1,0,0,0,1 @ F,0,0,1,0,0,0,1 @ F,0,0,1,0,0,0,1 @ F,0,0,1,0,0,0,1 @ F,0,0,1,0,0,0,1 @ F,0,0,1,0,0,0,1 @ F,0,0,1,0,0,0,1 @ F,0,0,1,0,0,0,1 @ F,0,0,1,0,0,0,1 @ F,0,0,1,0,0,0,1 @ F,0,0,1,0,0,0,1 @ F,0,0,1,0,0,0,1 @ F,0,0,1,0,0,0,1 @ F,0,0,1,0,0,0,1 @ F,0,0,1,0,0,0,1 @ F,0,0,1,0,0,0,1 @ F,0,0,1,0,0,0,1 @ F,0,0,1,0,0,0,1 @ F,0,0,1,0,0,0,1 @ F,0,0,1,0,0,0,1 @ F,0,0,1,0,0,0,1 @ F,0,0,1,0,0,0,1 @ F,0,0,1,0,0,0,1 @ F,0,0,1,0,26.489545,0,1 @ F,0,0,1,0,15.573873,0,1 @ F,0,0,1,0,0,0,1 @ F,0,0,1,0,18.051363,0,1 @ F,0,0,1,0,32.310166,0,1" unit="px" method="auto" mode="F" radius="0" chamfer_steps="1" flexible="false" use_knot_distance="true" apply_no_radius="true" apply_with_radius="true" only_selected="true" hide_knots="false" /><inkscape:path-effect effect="spiro" id="path-effect875" is_visible="true" lpeversion="1" /><inkscape:path-effect effect="spiro" id="path-effect873" is_visible="true" lpeversion="1" /><inkscape:path-effect effect="spiro" id="path-effect859" is_visible="true" lpeversion="1" /><inkscape:path-effect effect="spiro" id="path-effect862" is_visible="true" lpeversion="1" /><inkscape:path-effect effect="spiro" id="path-effect1521" is_visible="true" lpeversion="1" /><inkscape:path-effect effect="spiro" id="path-effect858" is_visible="true" lpeversion="1" /><inkscape:path-effect effect="spiro" id="path-effect854" is_visible="true" lpeversion="1" />
  <svg:style type="text/css" id="style2">
   
    .fil0 {fill:#EF7F1A;fill-rule:nonzero}
   
  </svg:style>
 <inkscape:path-effect effect="spiro" id="path-effect1214" is_visible="true" lpeversion="1" /><inkscape:path-effect effect="spiro" id="path-effect1195" is_visible="true" lpeversion="1" /><inkscape:path-effect effect="spiro" id="path-effect992" is_visible="true" lpeversion="1" /><inkscape:path-effect effect="spiro" id="path-effect287" is_visible="true" lpeversion="1" /><inkscape:path-effect effect="spiro" id="path-effect1032" is_visible="true" lpeversion="1" /><inkscape:path-effect effect="spiro" id="path-effect1218" is_visible="true" lpeversion="1" /><inkscape:path-effect effect="spiro" id="path-effect309" is_visible="true" lpeversion="1" /><inkscape:path-effect effect="spiro" id="path-effect1176" is_visible="true" lpeversion="1" /><inkscape:path-effect effect="spiro" id="path-effect1026" is_visible="true" lpeversion="1" /><inkscape:path-effect effect="spiro" id="path-effect1030" is_visible="true" lpeversion="1" /></svg:defs>
 
<svg:g id="path1087-1-75"><svg:path style="color:#000000;fill:#1a5fb4;fill-rule:nonzero;stroke-linecap:round;stroke-linejoin:round;-inkscape-stroke:none" d="M 387.61914,68.548828 C 312.03583,67.761435 236.4267,85.267061 168.98047,119.79883 100.65165,154.78247 41.448065,206.71543 -2.2695313,269.74414 -15.71913,289.13475 -17.477916,306.94053 -10.642578,328.24023 l 31.947265,99.54688 c 10.404506,32.42164 43.738682,50.36283 76.13086,43.44336 21.810713,-4.65911 43.859873,-8.20614 66.029293,-10.61914 36.22575,-3.94294 72.05069,-4.68716 106.09766,0.72851 33.94046,5.39873 66.41404,17.1938 92.77344,36.11133 21.63082,15.52394 39.48904,36.2451 50.4375,59.5625 1.86862,3.97969 3.4615,8.08131 4.92773,12.22852 -33.94492,-24.95582 -71.28642,-45.2924 -110.85156,-60.07617 -33.22605,-12.41514 -68.65963,-21.22962 -105.43555,-23.29883 -36.85168,-2.07348 -74.8476,2.74766 -110.322263,17.06054 -30.651643,12.36695 -59.184161,31.8445 -80.744141,58.71289 -21.679709,27.01761 -35.514742,60.86138 -36.228515,96.85547 -0.594101,29.95921 7.901051,58.34094 20.9648434,83.08789 13.0008943,24.62781 30.2923756,45.49827 48.5449216,63.75586 32.246833,32.25575 70.493744,59.16706 113.363284,77.05274 42.92809,17.9101 90.15346,26.50155 137.34375,22.66797 74.54898,-6.05611 144.38513,-43.29889 192.19531,-100.17969 C 534.26598,748.08982 558.56447,674.012 555.77148,600.37305 553.32695,535.92126 530.49277,473.27889 492.19531,421.86133 453.92949,370.48625 401.01195,331.14371 341.62695,308.17578 299.36902,291.83197 254.1482,283.94165 209.01758,284.625 c 15.49709,-10.76 32.73562,-18.93747 50.79687,-23.29688 40.23894,-9.71239 85.70306,-2.93404 129.70313,11.4668 16.68592,5.46116 33.06923,11.85895 49.04492,19.14844 12.45969,5.68518 30.46125,8.43325 45.74023,-2.47656 15.27899,-10.90981 18.56104,-29.66323 16.70118,-43.45118 L 483.38867,115.42383 C 480.16616,91.533975 464.59549,75.096375 439.8418,72.033203 422.50287,69.887579 405.06144,68.730534 387.61914,68.548828 Z m -0.60547,60.017582 c 12.67014,0.12375 25.31934,0.90945 37.9043,2.22265 l 12.91211,95.72266 c -9.78031,-3.85778 -19.65653,-7.46933 -29.65039,-10.74024 -50.08087,-16.39103 -106.45395,-26.28358 -162.44336,-12.76953 -59.1021,14.26536 -110.23507,54.03632 -138.60938,107.8086 a 30.003,30.003 0 0 0 34.07227,43.03711 c 58.53435,-15.20047 122.37906,-11.52598 178.7832,10.28906 49.0053,18.95344 92.93938,51.73709 124.09375,93.56445 31.12273,41.78488 49.77818,93.26785 51.73828,144.94727 0.47461,12.51329 -0.11456,25.08387 -1.60351,37.5625 -3.17381,-3.6989 -6.40571,-7.34411 -9.69532,-10.9375 3.19008,-33.73242 -3.26809,-67.59702 -17.43164,-97.76172 -15.7363,-33.51427 -40.38644,-61.72329 -69.76367,-82.80664 -35.60166,-25.55049 -76.9529,-40.03914 -118.33203,-46.6211 -41.27261,-6.56501 -82.42267,-5.42858 -122.01562,-1.11914 -24.20234,2.63427 -48.26654,6.50458 -72.072269,11.58985 -2.505958,0.53531 -5.966106,-1.54135 -6.466797,-3.10157 L 46.488281,309.90625 c 0.742715,2.31438 2.631435,-8.97497 0.544922,-5.9668 C 85.068704,249.10276 136.95437,203.60377 196.32422,173.20703 254.85427,143.24026 321.12036,127.92281 387.01367,128.56641 Z M 187.07031,545.41992 c 3.65307,0.0285 7.31315,0.14566 10.97266,0.35156 29.35186,1.6515 58.98808,8.83014 87.80469,19.59766 49.41915,18.4658 95.03965,47.28493 133.55468,83.50391 -5.39232,16.34922 -14.31243,31.91427 -25.85547,45.54492 -14.5317,-19.24207 -31.00225,-37.02462 -49.3125,-52.79883 -36.087,-31.08884 -79.39306,-54.95496 -127.09375,-65.86523 -25.96307,-5.93837 -55.40502,-8.55106 -84.91796,0.36718 -14.82306,4.47924 -29.25373,11.83702 -41.732426,22.70703 -12.552362,10.93419 -22.704212,25.09444 -28.298828,41.88086 -6.837425,20.51543 -5.824992,41.6092 -0.123047,60.46485 5.640634,18.6529 15.593991,34.53816 26.933594,47.86523 24.402227,28.67915 57.206827,47.83613 91.873047,57.86719 34.5096,9.98574 70.23415,10.96109 104.22852,6.26172 31.72547,-4.38572 63.26392,-14.08503 92.02929,-29.79688 1.11424,2.44418 2.3003,4.85764 3.3418,7.33203 a 30.003,30.003 0 0 0 15.89258,15.5625 c -31.74462,21.90217 -68.99818,35.9141 -106.88867,38.99219 C 252.7864,848.23856 214.83755,841.51424 180.0957,827.01953 145.2953,812.50039 113.3147,790.18161 86.060547,762.91992 70.636026,747.49114 57.38068,731.0704 48.144531,713.57422 38.971281,696.19718 33.757128,677.35013 34.107422,659.68555 34.525059,638.625 43.1096,616.68196 57.144531,599.19141 71.299192,581.55164 91.27186,567.5552 113.54102,558.57031 c 22.70347,-9.16012 47.95779,-13.34967 73.52929,-13.15039 z m -12.03906,85.04297 c 9.15453,0.18811 18.85585,1.52225 28.73242,3.78125 36.77175,8.41057 71.74454,27.3627 101.3086,52.83203 15.38434,13.25356 29.26407,28.29929 41.45312,44.60938 -21.19851,11.23173 -45.05183,18.64826 -69.63672,22.04687 -27.16854,3.75577 -54.53414,2.71574 -79.33594,-4.46094 -24.64517,-7.13135 -47.24323,-20.76897 -62.85351,-39.11523 -7.22587,-8.49234 -12.54728,-17.57995 -15.19922,-26.34961 -2.59063,-8.5669 -2.60764,-17.46316 -0.38672,-24.12695 1.81939,-5.45902 5.65851,-11.14192 10.78711,-15.60938 5.20227,-4.53162 12.05482,-8.21017 19.67773,-10.51367 7.6895,-2.32362 16.2986,-3.28186 25.45313,-3.09375 z" id="path19969" /></svg:g></svg:svg>
